T: Sweeper's Tune, The
M: 3/4
L: 1/8
K: Bmin
f3 e f2 | B2 d2 f2 | a4 f2 | d3 f d2 | e2 cd e2 | d2 c2 B2 | A3 F A2 | c2 d2 e2 |f4 f2 | B2 d2 f2 | a4 f2 | d3 f d2 | e2 cd e2 | d3 c B2 | B6 |1 B4 fg :|2 B2 cd e2 |||: f3 d A2 | A3 d f2 | e3 d c2 | c3 d c2 | B3 c d2 | c3 d e2 | d3 e f2 | f3 e d2 |f2 de f2 | A3 d f2 | e3 d c2 | c2 d2 c2 | B2 cd e2  | f2 e2 d2 | B6 |1 B3 d e2 :|2 B2 ef g2 ||| d2 f2 e2 | ~ or ~ | d3 f e2 |
